X:1
T:Fruktkanon
T:Anon.
%%score [ 1 2 3 ]
L:1/8
M:4/4
K:F
V:1 treble nm="I"
V:2 treble nm="II"
V:3 treble nm="III"
V:1
|: F2 F2 C2 C F- | F F3 C2 C2 | G2 G2 D2 D G- | G G3 z4 :| %4
w: Man- go, man- go, man-|* go, man- go,|man- go, man- go, man-|* go|
V:2
|: A A A A A A z A- | A A A A A A z2 | B B B B B B z B- | B B B B B B z2 :| %4
w: Ki- wi, ki- wi, ki- wi, ki-|* wi, ki- wi, ki- wi,|ki- wi, ki- wi, ki- wi, ki-|* wi, ki- wi, ki- wi|
V:3
|: c3 A- A2 F2 | z2 c2 A2 F2 | d3 B- B2 G2 | z4 f4 :| %4
w: a- na- * nas,|ba- na- na,|a- na- * nas|uh!|

